packages/icons/src/SVG/close-small.svg

<svg width="12" height="12" viewBox="0 0 12 12" >
<path d="M9.25304 9.96012L9.96015 9.25301L6.77817 6.07103L9.96015 2.88905L9.25304 2.18195L6.07106 5.36393L2.88908 2.18195L2.18198 2.88905L5.36396 6.07103L2.18198 9.25301L2.88908 9.96012L6.07106 6.77814L9.25304 9.96012Z" />
</svg>

<!-- Generated by IcoMoon.io -->
<svg version="1.1" xmlns="http://www.w3.org/2000/svg" width="12" height="12" viewBox="0 0 12 12">
<title>close-small</title>
<path d="M9.182 9.889l0.707-0.707-3.182-3.182 3.182-3.182-0.707-0.707-3.182 3.182-3.182-3.182-0.707 0.707 3.182 3.182-3.182 3.182 0.707 0.707 3.182-3.182 3.182 3.182z"></path>
</svg>
